build/images/Logo.svg

<svg width="121" height="55" viewBox="0 0 121 55" fill="none" xmlns="http://www.w3.org/2000/svg">
<path d="M13.755 34.49C10.1383 34.49 7.315 33.4983 5.285 31.515C3.255 29.5317 2.24 26.72 2.24 23.08V9.5H9.17V22.87C9.17 24.97 9.57833 26.475 10.395 27.385C11.235 28.295 12.3783 28.75 13.825 28.75C15.2717 28.75 16.4033 28.295 17.22 27.385C18.0367 26.475 18.445 24.97 18.445 22.87V9.5H25.27V23.08C25.27 26.72 24.255 29.5317 22.225 31.515C20.195 33.4983 17.3717 34.49 13.755 34.49Z" fill="#F3E243"/>
<path d="M27.0246 34L37.8396 9.5H44.6646L55.5146 34H48.3046L39.8346 12.895H42.5646L34.0946 34H27.0246ZM32.9396 29.24L34.7246 24.13H46.6946L48.4796 29.24H32.9396Z" fill="#20A0FD"/>
<path d="M56.7093 26.58V21.47H66.9293V26.58H56.7093ZM71.0486 34V9.5H82.2486C84.4886 9.5 86.4136 9.86167 88.0236 10.585C89.657 11.3083 90.917 12.3583 91.8036 13.735C92.6903 15.0883 93.1336 16.6983 93.1336 18.565C93.1336 20.4083 92.6903 22.0067 91.8036 23.36C90.917 24.69 89.657 25.7167 88.0236 26.44C86.4136 27.14 84.4886 27.49 82.2486 27.49H74.8986L77.9786 24.585V34H71.0486ZM86.2036 34L80.1136 25.075H87.4986L93.6236 34H86.2036ZM77.9786 25.32L74.8986 22.135H81.8286C83.2753 22.135 84.3486 21.82 85.0486 21.19C85.772 20.56 86.1336 19.685 86.1336 18.565C86.1336 17.4217 85.772 16.535 85.0486 15.905C84.3486 15.275 83.2753 14.96 81.8286 14.96H74.8986L77.9786 11.775V25.32ZM96.9568 34V9.5H108.157C110.397 9.5 112.322 9.86167 113.932 10.585C115.565 11.3083 116.825 12.3583 117.712 13.735C118.599 15.0883 119.042 16.6983 119.042 18.565C119.042 20.4083 118.599 22.0067 117.712 23.36C116.825 24.7133 115.565 25.7633 113.932 26.51C112.322 27.2333 110.397 27.595 108.157 27.595H100.807L103.887 24.585V34H96.9568ZM103.887 25.32L100.807 22.135H107.737C109.184 22.135 110.257 21.82 110.957 21.19C111.68 20.56 112.042 19.685 112.042 18.565C112.042 17.4217 111.68 16.535 110.957 15.905C110.257 15.275 109.184 14.96 107.737 14.96H100.807L103.887 11.775V25.32Z" fill="white"/>
<path d="M0.678711 44.8906H3.26172C3.80208 44.8906 4.26595 44.972 4.65332 45.1348C5.04069 45.2975 5.33854 45.5384 5.54688 45.8574C5.75521 46.1764 5.85938 46.5687 5.85938 47.0342C5.85938 47.402 5.79427 47.721 5.66406 47.9912C5.53385 48.2614 5.34993 48.4876 5.1123 48.6699C4.87793 48.8522 4.60124 48.9954 4.28223 49.0996L3.8623 49.3145H1.58203L1.57227 48.2549H3.27637C3.55306 48.2549 3.78255 48.2061 3.96484 48.1084C4.14714 48.0107 4.28385 47.8757 4.375 47.7031C4.4694 47.5306 4.5166 47.3337 4.5166 47.1123C4.5166 46.8747 4.47103 46.6696 4.37988 46.4971C4.28874 46.3213 4.15039 46.1862 3.96484 46.0918C3.7793 45.9974 3.54492 45.9502 3.26172 45.9502H2.02148V52H0.678711V44.8906ZM4.69238 52L3.04688 48.8164L4.46777 48.8115L6.13281 51.9316V52H4.69238ZM22.5633 45.9697L20.5369 52H19.116L21.7723 44.8906H22.6805L22.5633 45.9697ZM24.2576 52L22.2215 45.9697L22.0994 44.8906H23.0125L25.6834 52H24.2576ZM24.1648 49.3584V50.418H20.3514V49.3584H24.1648ZM44.5748 48.3232V51.0918C44.4706 51.2253 44.3063 51.3701 44.0816 51.5264C43.8603 51.6826 43.5706 51.8177 43.2125 51.9316C42.8544 52.0423 42.415 52.0977 41.8941 52.0977C41.4417 52.0977 41.0283 52.0228 40.6539 51.873C40.2796 51.7201 39.9573 51.4971 39.6871 51.2041C39.4169 50.9111 39.2086 50.5531 39.0621 50.1299C38.9156 49.7067 38.8424 49.2233 38.8424 48.6797V48.2109C38.8424 47.6673 38.9107 47.1839 39.0475 46.7607C39.1874 46.3376 39.386 45.9795 39.6432 45.6865C39.9036 45.3936 40.2145 45.1706 40.5758 45.0176C40.9404 44.8646 41.3473 44.7881 41.7965 44.7881C42.3987 44.7881 42.8935 44.8874 43.2809 45.0859C43.6715 45.2845 43.971 45.5579 44.1793 45.9062C44.3876 46.2513 44.5178 46.6484 44.5699 47.0977H43.2613C43.2255 46.8503 43.1539 46.6338 43.0465 46.4482C42.9391 46.2594 42.7861 46.113 42.5875 46.0088C42.3922 45.9014 42.1383 45.8477 41.8258 45.8477C41.5621 45.8477 41.3294 45.8997 41.1275 46.0039C40.9257 46.1081 40.7564 46.2594 40.6197 46.458C40.483 46.6566 40.3788 46.9023 40.3072 47.1953C40.2389 47.4883 40.2047 47.8236 40.2047 48.2012V48.6797C40.2047 49.0605 40.2438 49.3991 40.3219 49.6953C40.4 49.9883 40.5123 50.2357 40.6588 50.4375C40.8085 50.6361 40.9924 50.7874 41.2105 50.8916C41.4319 50.9925 41.6826 51.043 41.9625 51.043C42.2164 51.043 42.4264 51.0218 42.5924 50.9795C42.7617 50.9339 42.8967 50.8802 42.9977 50.8184C43.0986 50.7565 43.1767 50.6963 43.232 50.6377V49.3047H41.8209V48.3232H44.5748ZM63.2562 50.9453V52H59.477V50.9453H63.2562ZM59.8871 44.8906V52H58.5443V44.8906H59.8871ZM62.7631 47.8252V48.8555H59.477V47.8252H62.7631ZM63.2416 44.8906V45.9502H59.477V44.8906H63.2416ZM92.665 44.8906H93.8271L95.7705 50.2422L97.709 44.8906H98.876L96.2344 52H95.3018L92.665 44.8906ZM92.0791 44.8906H93.2168L93.4219 49.8076V52H92.0791V44.8906ZM98.3193 44.8906H99.4619V52H98.1191V49.8076L98.3193 44.8906ZM116.263 49.4072H114.432V48.3525H116.263C116.563 48.3525 116.805 48.3037 116.991 48.2061C117.18 48.1051 117.318 47.9684 117.406 47.7959C117.494 47.6201 117.538 47.4199 117.538 47.1953C117.538 46.9772 117.494 46.7738 117.406 46.585C117.318 46.3962 117.18 46.2432 116.991 46.126C116.805 46.0088 116.563 45.9502 116.263 45.9502H114.872V52H113.529V44.8906H116.263C116.817 44.8906 117.289 44.9899 117.679 45.1885C118.073 45.3838 118.373 45.6556 118.578 46.0039C118.786 46.349 118.89 46.7428 118.89 47.1855C118.89 47.6445 118.786 48.04 118.578 48.3721C118.373 48.7041 118.073 48.9596 117.679 49.1387C117.289 49.3177 116.817 49.4072 116.263 49.4072Z" fill="white"/>
</svg>

<svg width="121" height="55" fill="none" xmlns="http://www.w3.org/2000/svg"><path d="M13.755 34.49c-3.617 0-6.44-.992-8.47-2.975-2.03-1.983-3.045-4.795-3.045-8.435V9.5h6.93v13.37c0 2.1.408 3.605 1.225 4.515.84.91 1.983 1.365 3.43 1.365s2.578-.455 3.395-1.365c.817-.91 1.225-2.415 1.225-4.515V9.5h6.825v13.58c0 3.64-1.015 6.452-3.045 8.435-2.03 1.983-4.853 2.975-8.47 2.975Z" fill="#F3E243"/><path d="M27.025 34 37.84 9.5h6.825L55.515 34h-7.21l-8.47-21.105h2.73L34.095 34h-7.07Zm5.915-4.76 1.785-5.11h11.97l1.785 5.11H32.94Z" fill="#20A0FD"/><path d="M56.71 26.58v-5.11h10.22v5.11H56.71ZM71.048 34V9.5h11.2c2.24 0 4.165.362 5.775 1.085 1.633.723 2.893 1.773 3.78 3.15.886 1.353 1.33 2.963 1.33 4.83 0 1.843-.444 3.442-1.33 4.795-.887 1.33-2.147 2.357-3.78 3.08-1.61.7-3.535 1.05-5.775 1.05h-7.35l3.08-2.905V34h-6.93Zm15.155 0-6.09-8.925h7.385L93.624 34h-7.42Zm-8.225-8.68-3.08-3.185h6.93c1.446 0 2.52-.315 3.22-.945.723-.63 1.085-1.505 1.085-2.625 0-1.143-.362-2.03-1.085-2.66-.7-.63-1.774-.945-3.22-.945h-6.93l3.08-3.185V25.32ZM96.957 34V9.5h11.2c2.24 0 4.165.362 5.775 1.085 1.633.723 2.893 1.773 3.78 3.15.887 1.353 1.33 2.963 1.33 4.83 0 1.843-.443 3.442-1.33 4.795-.887 1.353-2.147 2.403-3.78 3.15-1.61.723-3.535 1.085-5.775 1.085h-7.35l3.08-3.01V34h-6.93Zm6.93-8.68-3.08-3.185h6.93c1.447 0 2.52-.315 3.22-.945.723-.63 1.085-1.505 1.085-2.625 0-1.143-.362-2.03-1.085-2.66-.7-.63-1.773-.945-3.22-.945h-6.93l3.08-3.185V25.32ZM.679 44.89h2.583c.54 0 1.004.082 1.391.245.388.163.686.403.894.722.208.32.312.712.312 1.177 0 .368-.065.687-.195.957-.13.27-.314.497-.552.679a2.707 2.707 0 0 1-.83.43l-.42.215h-2.28l-.01-1.06h1.704c.277 0 .507-.049.689-.147a.966.966 0 0 0 .41-.405 1.21 1.21 0 0 0 .142-.59 1.3 1.3 0 0 0-.137-.616.926.926 0 0 0-.415-.405c-.186-.095-.42-.142-.703-.142h-1.24V52H.678v-7.11ZM4.692 52l-1.645-3.184 1.42-.005 1.666 3.12V52h-1.44Zm17.871-6.03L20.537 52h-1.421l2.656-7.11h.909l-.118 1.08ZM24.258 52l-2.037-6.03-.122-1.08h.913L25.683 52h-1.425Zm-.093-2.642v1.06H20.35v-1.06h3.814Zm20.41-1.035v2.769a2.281 2.281 0 0 1-.493.434 3.184 3.184 0 0 1-.87.406c-.358.11-.797.166-1.318.166a3.31 3.31 0 0 1-1.24-.225 2.674 2.674 0 0 1-.967-.669 3.016 3.016 0 0 1-.625-1.074 4.423 4.423 0 0 1-.22-1.45v-.47c0-.543.069-1.026.206-1.45.14-.422.338-.78.595-1.073.26-.293.572-.516.933-.67a3.139 3.139 0 0 1 1.22-.229c.603 0 1.098.1 1.485.298.39.199.69.472.898.82a2.9 2.9 0 0 1 .39 1.192h-1.308a1.799 1.799 0 0 0-.215-.65 1.107 1.107 0 0 0-.459-.44c-.195-.107-.449-.16-.761-.16-.264 0-.497.052-.699.156a1.38 1.38 0 0 0-.507.454 2.22 2.22 0 0 0-.313.737 4.453 4.453 0 0 0-.102 1.006v.479c0 .38.039.72.117 1.015.078.293.19.54.337.742.15.2.333.35.552.455.22.1.472.151.752.151.253 0 .463-.021.63-.063.169-.046.304-.1.405-.162.1-.061.179-.122.234-.18v-1.333h-1.411v-.982h2.754Zm18.681 2.622V52h-3.779v-1.055h3.78Zm-3.369-6.054V52h-1.343v-7.11h1.343Zm2.876 2.934v1.03h-3.286v-1.03h3.286Zm.479-2.934v1.06h-3.765v-1.06h3.765Zm29.423 0h1.162l1.944 5.351 1.938-5.351h1.167L96.234 52h-.932l-2.637-7.11Zm-.586 0h1.138l.205 4.917V52h-1.343v-7.11Zm6.24 0h1.143V52h-1.343v-2.192l.2-4.917Zm17.944 4.516h-1.831v-1.054h1.831c.3 0 .542-.05.728-.147a.954.954 0 0 0 .415-.41c.088-.176.132-.376.132-.6 0-.219-.044-.422-.132-.611a1.061 1.061 0 0 0-.415-.459c-.186-.117-.428-.176-.728-.176h-1.391V52h-1.343v-7.11h2.734c.554 0 1.026.1 1.416.298.394.196.694.468.899.816.208.345.312.739.312 1.181 0 .46-.104.855-.312 1.187a1.99 1.99 0 0 1-.899.767c-.39.179-.862.268-1.416.268Z" fill="#fff"/></svg>
